X: 1
T: Pedar Bis
M: 4/4
L: 1/8
R: barndance
K: Ador
|: e>e dc Bc d2 | c/B/A Bc d2 d2 |
e>e dc Bc d2 | c/B/A Bc A2 A2 :|
|: A>B cA Bc d2 | c/B/A Bc d2 d2 |
AB cA Bc d2 |1 c/B/A Bc A2 A2 :|
2 e>e dc A2 A2||
